X:371
T: "Die Graefin von Holland"
N: Z1051
O: Europa, Mitteleuropa, Deutschland, Niederrhein
R: Romanze, Ballade
M: 2/4
L: 1/16
K: A
A2A2B2A2 | B2c2A4 |
B2cBA4 | B2cBA4 |
c2c2B2e2 | e2^d2e4 |
e2e2e2=dc | d2e2c4 |
B3cd2B2 | F2BAG2z2 |
F2BAG4 | F2BAG4 |
A3Bc2dc | B3AA4

@@@ Tune index: 10129
